src/icons/svg/ArrowDownThin.svg

<svg width="24" height="24" viewBox="0 0 24 24" fill="none" xmlns="http://www.w3.org/2000/svg">
<path d="M20.785 6.967C20.503 6.687 20.053 6.687 19.774 6.967L12 15.443L4.22599 6.968C3.94599 6.687 3.49399 6.687 3.21499 6.968C2.93599 7.247 2.93599 7.699 3.21499 7.978C3.21499 7.978 11.432 17.005 11.465 17.037C11.612 17.184 11.806 17.25 11.998 17.243C12.191 17.252 12.388 17.187 12.535 17.039C12.568 17.006 20.785 7.979 20.785 7.979C21.065 7.698 21.065 7.247 20.787 6.968L20.785 6.967Z" fill="#1C2125"/>
</svg>

<!-- Generated by IcoMoon.io -->
<svg version="1.1" xmlns="http://www.w3.org/2000/svg" width="24" height="24" viewBox="0 0 24 24">
<title>arrow-down-thin</title>
<path fill="#444" d="M20.785 6.967c-0.282-0.28-0.732-0.28-1.011 0l-7.774 8.476-7.774-8.475c-0.28-0.281-0.732-0.281-1.011 0-0.279 0.279-0.279 0.731 0 1.010 0 0 8.217 9.027 8.25 9.059 0.147 0.147 0.341 0.213 0.533 0.206 0.193 0.009 0.39-0.056 0.537-0.204 0.033-0.033 8.25-9.060 8.25-9.060 0.28-0.281 0.28-0.732 0.002-1.011z"></path>
</svg>
